!!!COM: Beethoven
!!!OTL: 24 Variationen uber Venni Amore von V. Righini
!!!Variation: Variation 6 bb
**function	**harm	**kern	**kern	**kern	**kern
*M2/4	*M2/4	*staff3	*staff4	*staff1	*staff2
*D:	*D:	*clefF4	*clefF4	*clefG2	*clefG2
*tb8	*	*k[f#c#]	*k[f#c#]	*k[f#c#]	*k[f#c#]
*	*	*M2/4	*M2/4	*M2/4	*M2/4
*	*	*D:	*D:	*D:	*D:
=	=	=-	=-	=-	=-
8D	8V	2r	8A' 8e'	2r	2r
4D	4I	.	(4d 4f#	.	.
8D	8V43	.	8e') 8g'	.	.
*	*	*	*	*	*
=	=	=113	=113	=113	=113
2D	2I	2r	4f#' 4a'	(8ff#L 8aa	2r
.	.	.	.	8cc#'J) 8ee'	.
.	.	.	4r	(8cc#L 8ee	.
.	.	.	.	8dd'J) 8ff#'	.
=	=	=114	=114	=114	=114
8D	8V43	2r	8e' 8g'	4a 4ee	2r
4D	4I	.	(4d 4f#	.	.
.	.	.	.	4r	.
8D	8V	.	8A') 8e'	.	.
*	*	*	*	*	*
=	=	=115	=115	=115	=115
8D	8I6	2r	4F#' 4d'	(8f#L 8dd	2r
4D	4V64	.	.	8e'J) 8a'	.
.	.	.	4r	(8eL 8a	.
8D	8I	.	.	8d'J) 8f#'	.
*	*	*	*clefF4	*	*
=	=	=116	=116	=116	=116
8D	8V	2r	8AA' 8E'	4A 4e	2r
4D	4I	.	(4D 4F#	.	.
.	.	.	.	4r	.
8D	8V43	.	8E') 8G'	.	.
=	=	=117	=117	=117	=117
2D	2I6	2r	4F#' 4A'	8dd' 8ff#'	2r
.	.	.	.	(4ee 4gg	.
.	.	.	4r	.	.
.	.	.	.	8ee#') 8gg#'	.
=	=	=118	=118	=118	=118
8D	8I6	2r	4r	8ff#' 8aa'	2r
8D	8ii	.	.	(4ee 4gg 4bb	.
8D	4V7	.	[4AA	.	.
.	.	.	.	8ee') 8gg' 8ccc#'	.
=	=	=119	=119	=119	=119
2T	2I	2r	8AAL]	4dd 4ff# 4ddd	2r
.	.	.	8DDJ	.	.
.	.	.	4r	4r	.
=	=	=120||	=120||	=120||	=120||
*-	*-	*-	*-
